static/img/icons/announcement.svg

<svg fill="none" viewBox="0 0 16 16" xmlns="http://www.w3.org/2000/svg"><path clip-rule="evenodd" d="m16 1.00002c-.0001-.170396-.0437-.337938-.1267-.486733-.0831-.148795-.2027-.273907-.3477-.363466-.145-.0895584-.3104-.14059228-.4806-.14825881-.1702-.00766652-.3396.02828841-.492.10445381l-7.79 3.894004h-3.763c-.79565 0-1.55871.31607-2.12132.87868-.562609.5626-.87868 1.32567-.87868 2.12132s.316071 1.55871.87868 2.12132c.56261.5626 1.32567.87866 2.12132.87866h.28l1.771 5.316c.06635.1992.19372.3725.36405.4953.17033.1227.37499.1888.58495.1887h1c.26522 0 .51957-.1053.70711-.2929.18753-.1875.29289-.4419.29289-.7071v-4.382l6.553 3.276c.1524.0762.3218.1121.492.1045.1702-.0077.3356-.0587.4806-.1483.145-.0895.2646-.2147.3477-.3635.083-.1488.1266-.3163.1267-.4867z" fill="#fff" fill-rule="evenodd"/></svg>

<svg width="16" height="16" viewBox="0 0 16 16" fill="none" xmlns="http://www.w3.org/2000/svg">
<path fill-rule="evenodd" clip-rule="evenodd" d="M16 1.00002C15.9999 0.829624 15.9563 0.662082 15.8733 0.513287C15.7902 0.364492 15.6706 0.23938 15.5256 0.149821C15.3806 0.0602626 15.2152 0.00922872 15.045 0.00156219C14.8748 -0.00610433 14.7054 0.0298506 14.553 0.106016L6.763 4.00002H3C2.20435 4.00002 1.44129 4.31609 0.87868 4.8787C0.316071 5.4413 0 6.20437 0 7.00002C0 7.79567 0.316071 8.55873 0.87868 9.12134C1.44129 9.68394 2.20435 10 3 10H3.28L5.051 15.316C5.11735 15.5152 5.24472 15.6885 5.41505 15.8113C5.58538 15.934 5.79004 16.0001 6 16H7C7.26522 16 7.51957 15.8947 7.70711 15.7071C7.89464 15.5196 8 15.2652 8 15V10.618L14.553 13.894C14.7054 13.9702 14.8748 14.0061 15.045 13.9985C15.2152 13.9908 15.3806 13.9398 15.5256 13.8502C15.6706 13.7607 15.7902 13.6355 15.8733 13.4867C15.9563 13.3379 15.9999 13.1704 16 13V1.00002Z" fill="white"/>
</svg>
